X:153
T: Die Rabenmutter
N: Q0114T
O: Osteuropa, UdSSR, Ukraine
R: Ballade, Kinds - Mord, Strafe
M: 3/4
L: 1/16
K: G
d2d2B2 | e6dd(3c2B2A2 | G4z2
d2d2B2 | e6dd(3c2B2A2 | G4z2
d2defg | a4g2f2e2f2 | g6
B2A2B2 | e6d2(3c2B2A2 | G4z2

@@@ Tune index: 1446
